src/xmb/monochrome/VM Labs - NUON (Digital).svg

<svg xmlns="http://www.w3.org/2000/svg" xml:space="preserve" viewBox="0 0 64 64"><path d="M45.36 20.36v-1.2c-2.94-1.62-6.18-2.3-9.6-2.77v.58c-1.23-.17-2.48-.27-3.76-.27s-2.53.1-3.76.28v-.58c-3.42.47-6.66 1.15-9.6 2.77v1.2C10.21 25.33 4.5 34.84 4.5 45.77c0 .21 0 .43.01.64.02 1.19 1.55 1.63 2.24.66 3.4-4.78 8.25-8.54 13.95-10.72 3.28 1.84 7.15 2.91 11.3 2.91s8.02-1.07 11.3-2.91c5.7 2.17 10.55 5.93 13.95 10.72.69.97 2.21.52 2.24-.66 0-.21.01-.42.01-.64 0-10.93-5.71-20.44-14.14-25.41M21.65 32.69c-2.79 0-5.05-2.26-5.05-5.05s2.26-5.05 5.05-5.05a5.049 5.049 0 1 1 0 10.1m8.44-4.11c-.83 0-1.51-.67-1.51-1.51s.67-1.51 1.51-1.51c.83 0 1.51.67 1.51 1.51s-.68 1.51-1.51 1.51M32 24.44c-.83 0-1.51-.67-1.51-1.51s.67-1.51 1.51-1.51 1.51.67 1.51 1.51-.68 1.51-1.51 1.51m1.91 2.48c0-1.08.87-1.95 1.95-1.95s1.95.87 1.95 1.95-.87 1.95-1.95 1.95-1.95-.88-1.95-1.95m3.91 6.79c-1.08 0-1.95-.87-1.95-1.95s.87-1.95 1.95-1.95 1.95.87 1.95 1.95-.87 1.95-1.95 1.95m3.46-5.41c-.83 0-1.51-.67-1.51-1.51s.67-1.51 1.51-1.51 1.51.67 1.51 1.51-.68 1.51-1.51 1.51m3.13 3.13c-.83 0-1.51-.67-1.51-1.51 0-.83.67-1.51 1.51-1.51.83 0 1.51.67 1.51 1.51s-.67 1.51-1.51 1.51m0-6.26c-.83 0-1.51-.67-1.51-1.51s.67-1.51 1.51-1.51c.83 0 1.51.67 1.51 1.51s-.67 1.51-1.51 1.51m3.14 3.13c-.83 0-1.51-.67-1.51-1.51s.67-1.51 1.51-1.51c.83 0 1.51.67 1.51 1.51s-.68 1.51-1.51 1.51" style="fill:#fff"/></svg>

<?xml version="1.0" encoding="utf-8"?>
<svg version="1.1" xmlns="http://www.w3.org/2000/svg" xmlns:xlink="http://www.w3.org/1999/xlink" x="0px" y="0px" viewBox="0 0 64 64" style="enable-background:new 0 0 64 64;" xml:space="preserve">
<style type="text/css">
	.st0{fill:#FFFFFF;}
</style>
<path class="st0" d="M45.36,20.36v-1.2c-2.94-1.62-6.18-2.3-9.6-2.77v0.58C34.53,16.8,33.28,16.7,32,16.7s-2.53,0.1-3.76,0.28V16.4c-3.42,0.47-6.66,1.15-9.6,2.77v1.2C10.21,25.33,4.5,34.84,4.5,45.77c0,0.21,0,0.43,0.01,0.64c0.02,1.19,1.55,1.63,2.24,0.66c3.4-4.78,8.25-8.54,13.95-10.72c3.28,1.84,7.15,2.91,11.3,2.91s8.02-1.07,11.3-2.91c5.7,2.17,10.55,5.93,13.95,10.72c0.69,0.97,2.21,0.52,2.24-0.66c0-0.21,0.01-0.42,0.01-0.64C59.5,34.84,53.79,25.33,45.36,20.36z M21.65,32.69c-2.79,0-5.05-2.26-5.05-5.05c0-2.79,2.26-5.05,5.05-5.05s5.05,2.26,5.05,5.05C26.7,30.42,24.44,32.69,21.65,32.69z M30.09,28.58c-0.83,0-1.51-0.67-1.51-1.51s0.67-1.51,1.51-1.51c0.83,0,1.51,0.67,1.51,1.51S30.92,28.58,30.09,28.58z M32,24.44c-0.83,0-1.51-0.67-1.51-1.51s0.67-1.51,1.51-1.51s1.51,0.67,1.51,1.51S32.83,24.44,32,24.44z M33.91,26.92c0-1.08,0.87-1.95,1.95-1.95s1.95,0.87,1.95,1.95c0,1.08-0.87,1.95-1.95,1.95S33.91,27.99,33.91,26.92z M37.82,33.71c-1.08,0-1.95-0.87-1.95-1.95s0.87-1.95,1.95-1.95s1.95,0.87,1.95,1.95S38.9,33.71,37.82,33.71z M41.28,28.3c-0.83,0-1.51-0.67-1.51-1.51s0.67-1.51,1.51-1.51s1.51,0.67,1.51,1.51S42.11,28.3,41.28,28.3z M44.41,31.43c-0.83,0-1.51-0.67-1.51-1.51c0-0.83,0.67-1.51,1.51-1.51c0.83,0,1.51,0.67,1.51,1.51C45.92,30.76,45.25,31.43,44.41,31.43z M44.41,25.17c-0.83,0-1.51-0.67-1.51-1.51s0.67-1.51,1.51-1.51c0.83,0,1.51,0.67,1.51,1.51S45.25,25.17,44.41,25.17z M47.55,28.3c-0.83,0-1.51-0.67-1.51-1.51s0.67-1.51,1.51-1.51c0.83,0,1.51,0.67,1.51,1.51S48.38,28.3,47.55,28.3z"/>
</svg>
